X:893
T:Xiraldilla (CT 415)
R:Xiraldilla
C:Tradicional
S:Msica Tradicional Asturiana, (C) Tello & Tito. Asturies, 2001.
S:http://pagina.de/MusTradAst <telloytito@asturies.org>
N:Xiraldilla, transcrita en Uviu.
A:Asturies
O:Uviu
Z:Cancioneru de Torner 415
M:2/4
L:1/8
Q:1/4=160
K:Cm
|: c3 d|e2 ee|d3 c|=Bc dd|[1 c4 :|[2 c2 zB|
|Ac cc|B2 BA|GG GG|G3 G|cc cc|B2 BA|GG GG|G2 z2||
W:No la puedo olvidar
W:porque le tengo amor;
W:ms quisiera morir
W:que decirle que no.
W:
W:La barca, marinero,
W:al tengo que pasar;
W:la nia de la arena,
W:no la puedo olvidar.
W:
